X:1
T:Come All Ye Bold Britons
M:4/4
L:1/4
K:G
 D| G G A G| D G G/2A/2 B| A
M:4/4
| G3G/2-A/2| B B B B| B- A G A| B B d c| B3 A| A AB/2-c/2 d|c/2-B/2 A B d/2D/2|\
 G G G G| F E D D| G AB/2-A/2 B| c e dd/2-c/2| B/2- G3/2 A2| G3||
